X: 1977
T: Arthur's Seat
R: hornpipe
M: 4/4
K: Dmajor
d'a fd cd AG|F2 A/B/d fa d'2|^ga =ga fa eA|dA cA B^G A2|
dA Fd cd AG|F2 A/B/d fa d'a|^ga ba =ge ce|dd af d4|
d'a fd cd AG|F2 Ad fa d'a|^ga =ga fa eA|dA cA B^G A2|
d'a fd cd AG|F2 A/B/d fa d'2|^ga ba =ge ce|dd af d4||
ba bf gf ge|a^g ae fe fd|gf gf ef ed|ce a^g a2 Bc|
da fd cd AG|F2 A/B/d fa d'a|^ga ba =ge ce|dd af d4|
b2>f2 g2 ge|a^g ae fe fd|gf gf ef ed|ce a^g a2 Bc|
da fd cd AG|F2 A/B/d fa d'a|^ga ba =ge ce|dd af2< d2||

